assets/images/ico_tel5.svg

<svg width="20" height="20" viewBox="0 0 20 20" fill="none" xmlns="http://www.w3.org/2000/svg">
<path d="M15.6973 11.7473C15.6973 11.7473 15.6966 11.7465 15.696 11.7459C14.9869 11.0419 14.0316 11.0419 13.3212 11.7459C12.8976 12.1645 12.4735 12.5844 12.0374 13.0313C11.9335 12.9755 11.8273 12.9232 11.7205 12.8714C11.5601 12.793 11.3995 12.7152 11.2497 12.6218C10.1182 11.9114 9.07875 10.9639 8.07273 9.72601C7.56325 9.0982 7.21401 8.54529 6.96902 7.96768C7.39742 7.55203 7.81751 7.1277 8.23625 6.70434C8.97585 5.95915 8.97431 5.03095 8.23239 4.28229C7.893 3.93866 7.54877 3.59445 7.2061 3.25641L6.85551 2.90505C6.62114 2.66972 6.38638 2.43342 6.14602 2.19597C5.42109 1.48978 4.48805 1.49036 3.76871 2.19809C3.59805 2.36701 3.42874 2.53806 3.25924 2.70852C2.99668 2.97436 2.73431 3.23942 2.46712 3.49541C2.0005 3.94001 1.73852 4.50295 1.68872 5.16879C1.6279 6.01224 1.77984 6.86689 2.18062 7.93872C2.79899 9.59666 3.7413 11.1683 5.06162 12.7434C6.70145 14.6996 8.68743 16.2529 10.9647 17.3607C12.2013 17.9638 13.2633 18.2713 14.3081 18.3271C14.3816 18.3314 14.4537 18.3335 14.5245 18.3335C15.3935 18.3335 16.0784 18.04 16.613 17.4412C16.8626 17.1634 17.1327 16.9018 17.4028 16.6402C17.5335 16.513 17.6644 16.3858 17.7945 16.2562C18.522 15.5217 18.5256 14.5765 17.8022 13.8469L15.6973 11.7473ZM17.281 15.7452C17.1543 15.8719 17.0265 15.9962 16.8985 16.1207C16.6165 16.3937 16.335 16.6672 16.0734 16.9585C15.645 17.4393 15.0929 17.64 14.3469 17.6047C13.4023 17.5537 12.4281 17.2696 11.2813 16.7103C9.09651 15.6469 7.19046 14.156 5.61666 12.2782C4.35001 10.7673 3.44785 9.265 2.85864 7.68563C2.49589 6.71573 2.35766 5.95568 2.41075 5.22188C2.44743 4.73481 2.62948 4.34098 2.96753 4.01858C3.23974 3.75777 3.50693 3.48827 3.77412 3.21818C3.94131 3.04926 4.10888 2.87957 4.27723 2.71335C4.49596 2.49848 4.72608 2.39095 4.95698 2.39095C5.18788 2.39095 5.41897 2.49848 5.63886 2.71258C5.87632 2.94733 6.10973 3.18131 6.34275 3.41529L6.69623 3.76954C7.03833 4.10739 7.37985 4.4489 7.71789 4.79118C8.18104 5.25856 8.18278 5.73077 7.72175 6.19449C7.29645 6.62499 6.87056 7.0555 6.43599 7.47559C6.21958 7.68408 6.17054 7.92598 6.28715 8.21788C6.55183 8.85553 6.94045 9.47986 7.51055 10.1826C8.56792 11.4828 9.66468 12.4816 10.8663 13.2361C11.0381 13.3429 11.2198 13.4326 11.4022 13.5216C11.5153 13.5768 11.6277 13.6319 11.7381 13.6921C11.9389 13.8017 12.2387 13.8682 12.5343 13.5606C12.96 13.1216 13.3953 12.6911 13.8303 12.2604C14.2616 11.832 14.755 11.8326 15.1863 12.2596L17.2889 14.3579C17.73 14.8029 17.7271 15.2956 17.281 15.7452Z" fill="#023869" stroke="#023869" stroke-width="0.8"/>
</svg>

<svg width="20" height="20" fill="none" xmlns="http://www.w3.org/2000/svg"><path d="M15.697 11.747l-.001-.001c-.71-.704-1.664-.704-2.375 0a97.31 97.31 0 00-1.284 1.285 8.611 8.611 0 00-.317-.16c-.16-.078-.32-.156-.47-.25-1.132-.71-2.171-1.657-3.177-2.895-.51-.628-.859-1.18-1.104-1.758.428-.416.849-.84 1.267-1.264.74-.745.738-1.673-.004-2.422-.339-.343-.683-.688-1.026-1.026l-.35-.35c-.235-.236-.47-.473-.71-.71-.725-.706-1.658-.706-2.377.002l-.51.51c-.262.266-.525.531-.792.787A2.497 2.497 0 001.69 5.17c-.061.843.09 1.698.492 2.77.618 1.658 1.56 3.23 2.88 4.804a17.845 17.845 0 005.904 4.618c1.236.603 2.298.91 3.343.966.074.004.146.006.216.006.87 0 1.554-.293 2.089-.892.25-.278.52-.54.79-.8l.392-.385c.727-.734.73-1.68.007-2.41l-2.105-2.099zm1.584 3.998c-.127.127-.255.251-.383.376-.282.273-.563.546-.825.838-.428.48-.98.681-1.726.646-.945-.051-1.919-.335-3.066-.895a17.131 17.131 0 01-5.664-4.432c-1.267-1.51-2.17-3.013-2.758-4.592-.363-.97-.501-1.73-.448-2.464.036-.487.218-.881.557-1.203.272-.261.539-.53.806-.8.167-.17.335-.34.503-.506.219-.215.45-.322.68-.322.23 0 .462.107.682.322.237.234.47.468.704.702l.353.355c.342.337.684.679 1.022 1.021.463.468.465.94.004 1.403-.426.431-.851.862-1.286 1.282-.216.208-.265.45-.149.742.265.638.653 1.262 1.224 1.965 1.057 1.3 2.154 2.299 3.355 3.053.172.107.354.197.536.286.113.055.226.11.336.17.2.11.5.176.796-.131.426-.44.861-.87 1.296-1.3.432-.429.925-.428 1.356-.001l2.103 2.098c.441.445.438.938-.008 1.387z" fill="#023869" stroke="#023869" stroke-width=".8"/></svg>
